assets/sonr-icons/nom.svg

<svg xmlns="http://www.w3.org/2000/svg" width="24" height="24" fill="none" viewBox="0 0 24 24"><path fill="#000" d="M20.858 6.923C19.562 7.318 18.322 7.825 17.083 8.36C10.097 11.543 5.421 16.333 6.66 19.065C6.913 19.572 7.308 19.995 7.843 20.248C9.505 21.093 11.393 21.375 13.223 21.037C15.053 20.699 16.744 19.797 18.012 18.417C19.28 17.037 20.096 15.29 20.294 13.431C20.492 11.572 20.097 9.684 19.167 8.078L20.858 6.923Z"/><path fill="#000" d="M18.576 7.17698C17.308 5.40298 15.393 4.16298 13.252 3.71198C11.111 3.26098 8.85703 3.65598 6.99803 4.78198C5.11003 5.93698 3.75803 7.71098 3.16703 9.82398C2.54803 11.909 2.77303 14.162 3.78603 16.078C5.42003 13.712 9.05403 10.979 13.674 8.92198C15.251 8.24598 16.886 7.65498 18.576 7.17498V7.17698Z"/></svg>

<svg xmlns="http://www.w3.org/2000/svg" width="24" height="24" fill="none"><path fill="currentColor" d="M20.858 6.923c-1.296.395-2.536.902-3.775 1.437-6.986 3.183-11.662 7.973-10.423 10.705.253.507.648.93 1.183 1.183a8.47 8.47 0 0 0 5.38.789c1.83-.338 3.521-1.24 4.789-2.62s2.084-3.127 2.282-4.986a8.85 8.85 0 0 0-1.127-5.353z"/><path fill="currentColor" d="M18.576 7.177a8.78 8.78 0 0 0-5.324-3.465 8.68 8.68 0 0 0-6.254 1.07 8.6 8.6 0 0 0-3.831 5.042 8.33 8.33 0 0 0 .619 6.254c1.634-2.366 5.268-5.099 9.888-7.156a41 41 0 0 1 4.902-1.747z"/></svg>
